X:1
T:CSÁRDÁS
T:C S Á R D Á S
T:per Armonica Cromatica in Do 12 fori Solista (con Pianoforte od Orchestra in accompagnamento)
T:V. MONTI
T:Proprietà G. RICORDI Tutti i diritti sono riservati
T:Proprietà G. RICORDI Tutti i diritti sono riservati
T:Proprietà G. RICORDI Tutti i diritti sono riservati
T:Proprietà G. RICORDI Tutti i diritti sono riservati
C:V. Monti
Z:Proprietà G. RICORDI Tutti i diritti sono riservati
%%score ( 1 2 )
L:1/8
M:2/4
K:F
V:1 treble nm="Armonica" snm="Arm."
V:2 treble 
V:1
 z4 | z4 | !fermata!z4 ||[M:4/4]"^Largo" z4 z!p!!8va(! (A{/c}BA) | (a4- af)(fg) | %5
 (Pfe) b4- b"^crescendo"B | (BA) (^ce g)(gfc) |!>(! e(d .Pd/^c/d/e/) f(A{/=c}BA)!>)! | %8
!<(! (a4- af)(fg)!<)! | (Pfe) b4- bB | (B"^molto rall."A) (d^c) (g3 f) | (ed) (Pd>^c d2) z2 | %12
!mf! c2- (3(c/e/g/)(3(b/c'/e'/) g'/>f'/e'/>d'/ (c'b) | (ba) (Pa>^g) a4 | %14
 A2- (3(A/^c/e/)(3(g/a/^c'/) e'c'(a'a) |!<(! (e'd') (Pd'/^c'/d'/e'/) f'2!<)! f'2 | %16
 f'2 b2- !fermata!b/"^Veloce"(e'/4f'/4e'/4^d'/4e'/4f'/4!>(!e'/4)"^rall." (3(g'f'e')!>)! | %17
 (e'a) a2- a^g/a/ (b/a/!fermata!c'/>b/) |"^a tempo" (Pb/Pa/a/g/ Pg/f/Pf/e/)"^rall. molto" (g3 e) | %19
 (ed)!f! Pd>^c d2 [aa'] z | d'' z!8va)! !fermata!z2 |:[M:2/4]"^All° vivace" .d.d' z!p! .b | %22
 z .a z .f | e !>!d2 ^c | d2- d z |"^staccato"!<(! .d/.e/.f/.e/ .d/.e/.f/.e/!<)! | %26
 .d/.e/.f/.e/ .d/.e/.f/.d/ |!f! f !>!e2 ^d | e2- e z |!pp!"^staccato" .g/.a/.b/.a/ .g/.a/.b/.a/ | %30
 .g/.a/.b/.a/ .g/.b/.a/.g/ | .f/.g/.a/.g/ .f/.g/.a/.g/ |!<(! .f/.g/.a/.g/ .f/.a/.g/.f/!<)! | %33
 .A/.=B/.^c/.d/ .e/"_crescendo      molto".f/.g/.a/ | .!courtesy!_b/.a/.g/.f/ .e/.d/.^c/.e/ | %35
 e !>!d2 .^c | d2 z2 ::"^staccato" .Pc/.=B/.c/.e/ .g/.!courtesy!_b/.g/.e/ | %38
 .Pc/.=B/.c/.e/ .g/.!courtesy!_b/.g/.e/ | .!courtesy!_B/.A/!<(!.B/.c/ .d/.e/.f/.g/ | a2-!<)! a z | %41
"^staccato\n"!pp!{/B} .A/.^G/.A/.^c/ .e/.!courtesy!=g/.e/.c/ | %42
{/B} .A/.^G/.A/.^c/ .e/.!courtesy!=g/.e/.c/ |!<(!{/B} .A/.^G/.A/.=B/ .^c/.d/.e/.d/ | f2-!<)! f z | %45
"^staccato"!pp! .!courtesy!_b/.a/.g/.a/ .b/.a/.g/.a/ | .b/!<(!.a/.g/.a/ .b/.a/.g/.b/ | %47
 .a/.g/.f/.g/ .a/.g/.f/.g/!<)! | .a/.g/.f/.g/ .a/.g/.f/.a/ | %49
 .A/.=B/.^c/.d/"_crescendo      molto" .e/.f/.g/.a/ | .!courtesy!_b/.a/.g/.f/ .e/.d/.^c/.e/ | %51
 e !>!d2 .^c |!f! d2 z2 :|[K:D]!f!"^Molto meno" d'2 (a>.a) | (ba) (gf) | (fe) (Pe/^d/e/g/) | b4 | %57
!mf!"_grazioso" (b>!courtesy!^c) (ce') | (e'>g) (.g.g) | (gf) (Pf/e/d/).e/ | f3 [Aa] || %61
!f! d'2 a>a | (ba) (gf) | (fe) (Pe/^d/e/g/) | b4 |"_molto rall." (d'>a) aa | (ba) ac | %67
!f! (ed) (Pd.c) | d2 z2 ||!p!"^Meno   quasi lento" d2 A>A | BA GF |!<(! FE EG!<)! | B4 | B>A AA | %74
 cB AG | GF F^E |!<(! F2 A2 | d2!<)! A>A | BA GF | FE EG | B4 | d2 A>A | BA A!>(!C | ED DC | %84
!ppp! !fermata!D4!>)! || %85
[K:F]"^All° vivace""^staccato"!p! .Pc/!<(!.=B/.c/.e/ .g/.!courtesy!_b/.g/.e/ | %86
 .Pc/.=B/.c/.e/!<)! .g/.!courtesy!_b/.g/.e/ | .!courtesy!_B/.A/.B/.c/ .d/.e/.f/.g/ | a2- a z | %89
{/B} .A/.^G/.A/.^c/ .e/.!courtesy!=g/.e/.c/ |{/B} .A/.^G/.A/.^c/ .e/.!courtesy!=g/.e/.c/ | %91
{/B} .A/!<(!.^G/.A/.=B/ .^c/.d/.e/.d/ | f2- f z!<)! |!p! .!courtesy!_b/.a/.g/.a/ .b/.a/.g/.a/ | %94
 .b/.a/.g/.a/ .b/.a/.g/.b/ | .a/.g/.f/.g/ .a/.g/.f/.g/ | .a/.g/.f/.g/"_cresc." .a/.g/.f/.a/ | %97
"_poco rall." A/=B/^c/d/ e/f/g/a/ | !courtesy!_b/a/^g/a/ g/a/=b/^c'/ ||[K:D]"^Allegretto" d' z z2 | %100
"^1" z4 ||!f! d !>!d'2 !>!b- | b a2 f | e d2 c | d2- d z | %105
"^staccato" .d/!<(!.e/.f/.e/ .d/.e/.f/.e/ | .d/.e/.f/.e/ .d/.e/!<)!.f/.d/ | f !>!e2 ^d | e2- e z | %109
 .g/.a/.b/.a/ .g/.a/.b/.a/ | .g/.a/.b/.a/ .g/.b/.a/.g/ |!<(! .f/.g/.a/.g/ .f/.g/.a/.g/!<)! | %112
 .f/.g/.a/.g/ .f/.g/.a/.f/ |"^rall.       poco a poco" .e/.f/.^g/.f/ .e/.f/.g/.f/ | %114
 .e/.f/.^g/.f/ .e/.f/.g/.e/ |"_stentato" a !>!a2 !>!a- | a (a2 .A) || %117
!f!"^a T° più presto" d !>!d'2 b- | b !>!a2 f | e !>!d2 c | d2- d z | %121
!<(! .d/.e/.f/.e/ .d/.e/.f/.e/ | .d/.e/.f/.e/!<)! .d/.e/.f/.e/ | f !>!e2 ^d | e2- e z | %125
"^molto più vivo" .g/.a/.b/.a/ .g/.a/.b/.a/ |"^simile" g/a/b/a/ g/b/a/g/ | f/g/a/g/ f/g/a/g/ | %128
 f/g/a/g/ f/a/g/f/ |"^stringendo sempre"!<(! e/^d/e/f/ g/f/g/a/ | b/a/^g/a/ g/a/b/c'/!<)! | %131
 d'2 z2 |!f! [Aa]2!ff! !fermata!z2 | !fermata!D4 |] %134
V:2
 x4 | x4 | x4 ||[M:4/4] x5!8va(! x3 | x8 | x8 | x8 | x8 | x8 | x8 | x8 | x8 | x8 | x8 | x8 | x8 | %16
 x33/4 | x8 | x8 | x8 | x2!8va)! x2 |:[M:2/4] x4 | x4 | x4 | x4 | x4 | x4 | x4 | x4 | x4 | x4 | %31
 x4 | x4 | x4 | x4 | x4 | x4 :: x4 | x4 | x4 | x4 | x4 | x4 | x4 | x4 | x4 | x4 | x4 | x4 | x4 | %50
 x4 | x4 | x4 :|[K:D] x4 | x4 | x4 | x4 | x4 | x4 | x4 | x4 || x4 | x4 | x4 | x4 | x4 | x4 | x4 | %68
 x4 || x4 | x4 | x4 | x4 | x4 | x4 | x4 | x4 | x4 | x4 | x4 | x4 | x4 | x4 | x4 | x4 ||[K:F] x4 | %86
 x4 | x4 | x4 | x4 | x4 | x4 | x4 | x4 | x4 | x4 | x4 | x4 | x4 ||[K:D] x4 | x4 || x4 | x4 | x4 | %104
 x4 | x4 | x4 | x4 | x4 | x4 | x4 | x4 | x4 | x4 | x4 | x4 | x4 || x4 | x4 | x4 | x4 | x4 | x4 | %123
 x4 | x4 | x4 | x4 | x4 | x4 | x4 | x4 | x4 | x4 | D4 |] %134

